X: 11
T: Shoe The Donkey
R: mazurka
M: 3/4
L: 1/8
K: Gmaj
Bc|:d2 B2 d2 | g4 de | f2 e2 c2 | A4 AG | F2 A2 d2 | f4 fe |1 de fe dc| B4 Bc:|2 de dc AF | G4 Bc||


Tune 2320	Setting 15689

